Numix-GalliumOS/24/status/semi-starred.svg

<?xml version="1.0" encoding="UTF-8" standalone="no"?>
<svg
   xmlns:dc="http://purl.org/dc/elements/1.1/"
   xmlns:cc="http://creativecommons.org/ns#"
   xmlns:rdf="http://www.w3.org/1999/02/22-rdf-syntax-ns#"
   xmlns:svg="http://www.w3.org/2000/svg"
   xmlns="http://www.w3.org/2000/svg"
   xmlns:sodipodi="http://sodipodi.sourceforge.net/DTD/sodipodi-0.dtd"
   xmlns:inkscape="http://www.inkscape.org/namespaces/inkscape"
   width="24"
   viewBox="0 0 24 24"
   height="24"
   id="svg2"
   version="1.1"
   inkscape:version="0.91 r13725"
   sodipodi:docname="semi-starred.svg">
  <metadata
     id="metadata20">
    <rdf:RDF>
      <cc:Work
         rdf:about="">
        <dc:format>image/svg+xml</dc:format>
        <dc:type
           rdf:resource="http://purl.org/dc/dcmitype/StillImage" />
        <dc:title></dc:title>
      </cc:Work>
    </rdf:RDF>
  </metadata>
  <defs
     id="defs18" />
  <sodipodi:namedview
     pagecolor="#ffffff"
     bordercolor="#666666"
     borderopacity="1"
     objecttolerance="10"
     gridtolerance="10"
     guidetolerance="10"
     inkscape:pageopacity="0"
     inkscape:pageshadow="2"
     inkscape:window-width="1366"
     inkscape:window-height="704"
     id="namedview16"
     showgrid="true"
     inkscape:zoom="19.666666"
     inkscape:cx="5.5982197"
     inkscape:cy="11.926"
     inkscape:window-x="0"
     inkscape:window-y="27"
     inkscape:window-maximized="1"
     inkscape:current-layer="svg2">
    <inkscape:grid
       type="xygrid"
       id="grid2987" />
  </sodipodi:namedview>
  <path
     style="color:#000000;fill:#dfdd41;fill-opacity:1"
     d="M 12,1.0058594 C 10.452244,1.0608341 9.5745676,6.5284114 8.3125,7.4355469 7.0438432,8.3474194 1.5220943,7.416403 1.0332031,8.8984375 0.54412411,10.381035 5.5384424,12.919801 6.015625,14.40625 c 0.4769949,1.485858 -2.0913876,6.439361 -0.8300781,7.361328 1.2618099,0.922324 5.2269521,-3.027928 6.7910151,-3.021484 0.0072,2.9e-5 0.01612,0.0037 0.02344,0.0039 1.136507,-6.104131 0.416596,-11.8988597 0,-17.7441406 z"
     id="path6"
     inkscape:connector-curvature="0"
     sodipodi:nodetypes="cssssccc" />
  <path
     style="opacity:1;fill:#808080;fill-opacity:1;stroke:none;stroke-width:0.5;stroke-linecap:round;stroke-linejoin:round;stroke-miterlimit:4;stroke-dasharray:none;stroke-opacity:1"
     d="M 12.025391 1 C 12.016654 0.99996514 12.008694 1.0055506 12 1.0058594 L 12 18.75 C 13.577697 18.793031 17.456185 22.773223 18.71875 21.865234 C 19.987673 20.952676 17.446078 15.937549 17.935547 14.455078 C 18.424815 12.973199 23.446136 10.481826 22.96875 8.9960938 C 22.491176 7.5097692 16.951013 8.4070274 15.689453 7.484375 C 14.428376 6.5620816 13.588845 1.0060374 12.025391 1 z "
     id="rect4136" />
</svg>

<svg xmlns="http://www.w3.org/2000/svg" viewBox="0 0 24 24">
 <path d="m 12 1.01 c -1.548 0.055 -2.425 5.523 -3.688 6.43 -1.269 0.912 -6.79 -0.019 -7.279 1.463 -0.489 1.483 4.505 4.02 4.982 5.508 c 0.477 1.486 -2.091 6.439 -0.83 7.361 1.262 0.922 5.227 -3.03 6.791 -3.02 0.007 0 0.016 0.004 0.023 0.004 1.137 -6.104 0.417 -11.899 0 -17.744 z" style="fill:#dfdd41;fill-opacity:1;color:#000"/>
 <path d="m 12.03 1 c -0.009 0 -0.017 0.006 -0.025 0.006 l 0 17.744 c 1.578 0.043 5.456 4.02 6.719 3.115 c 1.269 -0.913 -1.273 -5.928 -0.783 -7.41 c 0.489 -1.482 5.511 -3.973 5.03 -5.459 c -0.478 -1.486 -6.02 -0.589 -7.279 -1.512 c -1.261 -0.922 -2.101 -6.478 -3.664 -6.484 z" style="fill:#808080;opacity:1;fill-opacity:1;stroke:none"/>
</svg>
